X: 902
T: My Love She's But a Lassie Yet
R: Reel
M: 4/4
L: 1/4
I: scale 0.85
K: D
"D"dDFA|dDDd/2c/2|"D"dD"Bm"FA|"Em"eE"A"Ed/2c/2|"D"dDFA|"G"Bgfe|
"A"d/2c/2B/2A/2 B/2c/2d/2e/2|"D"fdd2:||:"D"afge|fddf/2g/2|"D"af "Bm"g/2f/2g/2a/2|
"Em"be"A" ef/2g/2|"D"af "A/C#"ge|"Bm"fd "A"ef/2e/2|"G"d/2c/2B/2A/2 "A"B/2c/2d/2e/2|"D" fdd2:|]

